X:1
T:Title
%%score { ( 1 3 ) | 2 }
L:1/8
M:4/4
K:Ab
V:1 treble nm="Grand Piano"
V:3 treble 
V:2 bass 
V:1
 z4 z2[Q:1/4=88] [CA]>[DB] | [Ec]>[Ec] [Ec]>[Ec] c<e [EA]>B | c>c c>c c2 c>c | %3
 [Fd]>[Fd] F>[Fd] [Ec]>[Ec] [CE]>[Ec] | z4 B2[K:bass][K:treble] z2 | [Ec]>[Ec] [Ec]>[Ec] c<e c>c | %6
[M:9/8] [Fd]>[Fd][FA]- [FA]/[FB]/ [=Ec]2- [Ec][Ec]>[Ec] | %7
[M:4/4] [FB]>[FB] [Af]>[Af] [Ae]<[Ae] [EAc]>[DEB] |[M:3/4] [CEA]6 |[M:1/4] c>d |[M:4/4] e6 z2 | %11
 [Ec]<[Ac] [Gc]>[Fc] [Ec]2 c>c | [Fd]>[Fd] [Fd]>[Fd] [Fd]<[Fd] [FA]>[DF] | %13
 z4 B2[K:bass][K:treble] z2 |[M:1/4] [Ec]>[Ec] |[M:4/4] [Ec]>[Ec] [Ec]>[Ec] c<e c>c | %16
[M:9/8] [Fd]>[Fd][FA]- [FA]/[FB]/ [=Ec]2- [Ec][Ec]>[Ec] | %17
[M:4/4] [FB]>[FB] [Af]>[Af] [Ae]<[Ae] [EAc]>[DEB] |[M:7/4] [CEA]6 z2 z2 z4 |] %19
V:2
 z4 z2 [A,,A,]>[A,,A,] | %1
 [A,,A,]>[A,,A,] [A,,A,]>[A,,A,][K:treble] [A,E]<[A,CEA][K:bass] [C,A,]>[E,G,E] | %2
 [A,E]>[A,A] [A,G]>[A,F] [A,E]2 [A,F]>[A,_G] | %3
 [D,A,]>[D,A,] [D,D]>[D,A,] [A,,A,]>[A,,A,] [A,,A,]>[A,,A,] | %4
 [B,,A,]>[A,B,=D] [G,B,D]>[F,B,D] [E,G,E]2 [C,A,]>[B,,G,] | %5
 [A,,A,]>[A,,A,] [A,,A,]>[A,,A,][K:treble] [A,E]<[A,CEA] [A,F]>[A,_G] | %6
[M:9/8][K:bass] [D,A,]>[D,A,][D,A,]- [D,A,]/[D,F,]/ [C,G,]2- [C,G,][C,G,]>[C,G,] | %7
[M:4/4] [D,F,]>[D,A,] [=D,B,]>[D,_C] [E,=C]<[E,C] E,>E, |[M:3/4] A,,6 | %9
[M:1/4][K:treble] [A,E]>[A,E] | %10
[M:4/4] [A,CEA]>[A,CE] [A,CE]>[K:bass][A,CE] [A,CE]>[A,E] [C,A,]>[E,G,] | %11
 [A,,A,]<[A,,A,] [A,,A,]>[A,,A,] [A,,A,]2[K:treble] [A,F]>[A,_G] | %12
 [D,A,]>[D,A,] [D,A,]>[D,A,] [D,A,]<[D,A,] [D,D]>[D,A,] | %13
 [A,,A,]>[A,,A,] [C,A,]>[A,,A,] .[E,G,E]2 [C,A,]>[B,,G,] |[M:1/4] [A,,A,]>[A,,A,] | %15
[M:4/4] [A,,A,]>[A,,A,] [A,,A,]>[A,,A,][K:treble] [A,E]<[A,CEA] [A,F]>[A,_G] | %16
[M:9/8][K:bass] [D,A,]>[D,A,][D,A,]- [D,A,]/[D,F,]/ [C,G,]2- [C,G,][C,G,]>[C,G,] | %17
[M:4/4] [D,F,]>[D,A,] [=D,B,]>[D,_C] [E,=C]<[E,C] E,>E, |[M:7/4] A,,6 z2 z2 z4 |] %19
V:3
 x8 | x8 | x8 | x8 | [=DB]>F G>A z z/[K:bass] D,/[K:treble] [EA]>[EB] | x8 |[M:9/8] x9 | %7
[M:4/4] x8 |[M:3/4] x6 |[M:1/4] x2 |[M:4/4] z z/ A/ A>A A>c [EA]>[EB] | x8 | x8 | %13
 [CE]>[CE] [EA]>[Ec] z[K:bass] .D,[K:treble] [EA]>[EB] |[M:1/4] x2 |[M:4/4] x8 |[M:9/8] x9 | %17
[M:4/4] x8 |[M:7/4] x14 |] %19

